X: 191
T: Possum On A Rail
B: canberra pickers and fiddlers
B: old time tunes update
B: tunes
M:C|
L:1/8
Q: 1/4=100
K:G
V:1 
"G"G2Bd g2-g2 | "C"eec2 "G"e2-e2 | G2Bd g2-g2 | BcB2 "D"A2F2 | "G"G4 |
"G"G2Bd g2-g2 | "C"bbg2 "G"e2-e2 | G2Bd g2-g2 | BcB2 "D"A2F2 | "G"G4 ||
|:"G"B2Bc BAG2 | "C"c3d c2GA | "G"BABc BAG2 | "D"A3B A4 |
"G"BABc BAG2 | "C"c2c2 | "G"e2dc "D"FGA2 | "G"G4 :|
% abcbook-tune_id 67a7d9ecb3f8b56b2fda5756
% abcbook-tune_composer_id 
% abcbook-link-0 https://www.youtube.com/watch?v=D0_KRvYXINc
% abcbook-link-title-0 Possum on a Rail
% abcbook-boost 0
% abcbook-difficulty 0
% abcbook-tags old time tunes
% abcbook-tablature 
% abcbook-transpose 
% abcbook-tuning GDAD
% abcbook-lastupdated 1739218499475
% abcbook-src-url 
% abcbook-soundfonts 
% abcbook-repeats 1


